X:1
T:Title
%%score { ( 1 3 ) | 2 }
L:1/8
Q:1/4=112
M:3/4
K:Bb
V:1 bass nm="Grand Piano"
V:3 bass 
V:2 bass 
V:1
 [DF]2 [F,B,D]2 [F,B,CE]2 | z2 [Fd]4 | [Gc]2 [B,EGB]2 [B,EG]2 | F6 | %4
w: I.~H.~Meredith * *||||
 [CF]2[K:bass] [F,A,C]2 [F,A,B,D]2 | z2 [CA]4 | [EG]2 F2 E2 | D6 | %8
w: ||||
 [DF]2[K:bass] [F,B,D]2 [F,B,CE]2 | z2 [Fd]4 | [Gc]2 [B,EGB]2 [B,EG]2 | F6 | [Fd]2 [Ge]2 [Fd]2 | %13
w: |||||
 z2 [=EG]4 | [EA]2 [A,EF]2 [Ec]2 | [DFB]6 |[Q:1/4=118] [Fd]2 [DF]2 [Fd]2 | c2 F2 c2 | %18
w: |||||
 [DB]2 [_DA]2 [DG]2 | [DF]6 | [DF]2 [DG]2 [DA]2 | [DB]2 [Dc]2 [Dd]2 | [=Ec]2 [EG]2 [Ec]2 | [Fc]6 | %24
w: ||||||
 [Ge]2 [EG]2 [Ge]2 | d2 G2 d2 | [Ec]2 [F=B]2 [Ec]2 | [EG]6 | B2 A2 G2 |[M:7/8] F2 B3 G2 | %30
w: ||||||
[M:3/4] A2 F2 c2[Q:1/4=116][Q:1/4=115][Q:1/4=113][Q:1/4=111][Q:1/4=109][Q:1/4=108][Q:1/4=106][Q:1/4=104][Q:1/4=102][Q:1/4=101][Q:1/4=99][Q:1/4=97][Q:1/4=95][Q:1/4=94][Q:1/4=92][Q:1/4=90] | %31
w: |
 [DB]6 |] %32
w: |
V:2
 B,,2 D,2 D,2 | B,,2 [F,B,D]2 F,2 | E,2 G,2 G,2 | B,,2 F,2 F,2 | F,,2 E,2 E,2 | %5
 F,,2 [E,F,A,]2 E,2 | F,,2 [E,F,A,D]2 [E,F,A,C]2 | [B,,B,]2 [D,F,]2 [D,F,]2 | B,,2 D,2 D,2 | %9
 B,,2 [F,B,D]2 F,2 | E,2 G,2 G,2 | B,,2 F,2 F,2 | G,,2 [F,G,=B,]2 [F,G,B,]2 | C,2 =E,2 E,2 | %14
 F,,2 F,2 [F,A,]2 | [B,,F,B,]6 | [B,,B,]2 [B,,B,]2 [B,,B,]2 | [F,A,E]2 [F,CE]2 [F,A,E]2 | %18
 [B,,F,]2 [B,,=E,]2 [B,,E,]2 | [B,,F,]6 | [B,,B,]2 [B,,B,]2 [B,,F,]2 | [B,,F,]2 [B,,F,]2 [B,,B,]2 | %22
 [C,G,]2 [C,C]2 [C,B,]2 | [F,A,]6 | [C,C]2 [C,C]2 [C,C]2 | [G,=B,F]2 [G,DF]2 [G,B,F]2 | %26
 [C,G,]2 [D,G,]2 [C,G,]2 | [C,C]6 | [=E,G,_D]2 [E,A,D]2 [E,B,D]2 | %29
[M:7/8] [F,B,D]2 [G,C=E]3 [G,CE]2 |[M:3/4] [F,CE]2 [F,A,E]2 [F,A,E]2 | [B,,F,B,]6 |] %32
V:3
 x6 | [DF]2 z2 [B,D]2 | x6 | D2 [B,D]2 [B,D]2 | x2[K:bass] x4 | [CE]2 z2 [F,A,]2 | x6 | %7
 z2 B,2 B,2 | x2[K:bass] x4 | [DF]2 z2 [B,D]2 | x6 | D2 [B,D]2 [B,D]2 | x6 | [=Ec]2 [G,C]2 [G,C]2 | %14
 x6 | x6 | x6 | x6 | x6 | x6 | x6 | x6 | x6 | x6 | x6 | x6 | x6 | x6 | x6 |[M:7/8] x7 |[M:3/4] x6 | %31
 x6 |] %32

